documentation/public/assets/images/textarea-03-dont.svg

<svg width="260" height="56" viewBox="0 0 260 56" fill="none" xmlns="http://www.w3.org/2000/svg">
<path d="M0.891153 9.56653V0.531468H2.52788V8.1945H6.50718V9.56653H0.891153ZM9.8071 9.70329C9.3777 9.70329 8.99094 9.62682 8.64684 9.47388C8.30567 9.31801 8.03509 9.0886 7.83509 8.78567C7.63804 8.48273 7.53951 8.10921 7.53951 7.66511C7.53951 7.28276 7.6101 6.9666 7.75127 6.7166C7.89244 6.46661 8.08509 6.26661 8.3292 6.11662C8.57331 5.96662 8.8483 5.85339 9.15418 5.77692C9.46299 5.69751 9.7821 5.64016 10.1115 5.60487C10.5086 5.56369 10.8306 5.52693 11.0777 5.49457C11.3247 5.45928 11.5041 5.40634 11.6159 5.33576C11.7306 5.26223 11.7879 5.149 11.7879 4.99606V4.96959C11.7879 4.63724 11.6894 4.3799 11.4924 4.19755C11.2953 4.0152 11.0115 3.92403 10.6409 3.92403C10.2497 3.92403 9.93945 4.00932 9.71004 4.1799C9.48358 4.35049 9.33064 4.55195 9.25123 4.7843L7.76009 4.57254C7.87774 4.16079 8.07185 3.81668 8.34243 3.54021C8.61301 3.26081 8.94389 3.05199 9.33505 2.91376C9.72622 2.77259 10.1586 2.702 10.6321 2.702C10.9585 2.702 11.2835 2.74023 11.6071 2.8167C11.9306 2.89317 12.2262 3.01964 12.4938 3.1961C12.7614 3.36963 12.9761 3.60639 13.1379 3.90638C13.3026 4.20637 13.3849 4.58136 13.3849 5.03135V9.56653H11.8497V8.63567H11.7968C11.6997 8.8239 11.5629 9.00037 11.3865 9.16507C11.2129 9.32683 10.9938 9.45771 10.7291 9.55771C10.4674 9.65476 10.16 9.70329 9.8071 9.70329ZM10.2218 8.52979C10.5424 8.52979 10.8203 8.46656 11.0556 8.34009C11.2909 8.21068 11.4718 8.0401 11.5982 7.82834C11.7276 7.61658 11.7923 7.3857 11.7923 7.13571V6.3372C11.7423 6.37838 11.6571 6.41661 11.5365 6.4519C11.4188 6.4872 11.2865 6.51808 11.1394 6.54455C10.9924 6.57102 10.8468 6.59455 10.7027 6.61513C10.5586 6.63572 10.4336 6.65337 10.3277 6.66807C10.0894 6.70043 9.87622 6.75337 9.68799 6.82689C9.49975 6.90042 9.35123 7.00336 9.24241 7.13571C9.13359 7.26512 9.07918 7.43276 9.07918 7.63864C9.07918 7.93275 9.18653 8.1548 9.40123 8.3048C9.61593 8.45479 9.88945 8.52979 10.2218 8.52979ZM15.0614 9.56653V0.531468H16.6584V3.91079H16.7246C16.8069 3.74609 16.9231 3.57109 17.0731 3.38581C17.2231 3.19758 17.426 3.03729 17.6819 2.90494C17.9378 2.76965 18.2642 2.702 18.6613 2.702C19.1848 2.702 19.6568 2.83582 20.0774 3.10346C20.5009 3.36816 20.8362 3.7608 21.0833 4.28137C21.3333 4.799 21.4583 5.43428 21.4583 6.1872C21.4583 6.9313 21.3362 7.56364 21.0921 8.08421C20.848 8.60479 20.5156 9.00184 20.0951 9.27536C19.6745 9.54888 19.198 9.68564 18.6657 9.68564C18.2775 9.68564 17.9554 9.62094 17.6995 9.49153C17.4437 9.36212 17.2378 9.20624 17.0819 9.0239C16.929 8.83861 16.8099 8.66361 16.7246 8.49891H16.6319V9.56653H15.0614ZM16.6275 6.17838C16.6275 6.6166 16.6893 7.00042 16.8128 7.32982C16.9393 7.65922 17.1201 7.91657 17.3554 8.10186C17.5937 8.28421 17.8819 8.37538 18.2201 8.37538C18.573 8.37538 18.8686 8.28127 19.1069 8.09304C19.3451 7.90187 19.5245 7.64158 19.6451 7.31217C19.7686 6.97983 19.8304 6.6019 19.8304 6.17838C19.8304 5.7578 19.7701 5.38428 19.6495 5.05782C19.5289 4.73136 19.3495 4.47548 19.1113 4.29019C18.873 4.1049 18.576 4.01226 18.2201 4.01226C17.879 4.01226 17.5893 4.10196 17.351 4.28137C17.1128 4.46078 16.9319 4.71224 16.8084 5.03576C16.6878 5.35928 16.6275 5.74016 16.6275 6.17838ZM25.8159 9.69888C25.1365 9.69888 24.5497 9.55771 24.0556 9.27536C23.5645 8.99007 23.1865 8.58714 22.9218 8.06657C22.6571 7.54305 22.5248 6.92689 22.5248 6.21809C22.5248 5.52104 22.6571 4.9093 22.9218 4.38284C23.1895 3.85344 23.563 3.44169 24.0424 3.14758C24.5218 2.85053 25.085 2.702 25.7321 2.702C26.1497 2.702 26.5438 2.76965 26.9144 2.90494C27.2879 3.03729 27.6173 3.24316 27.9026 3.52257C28.1908 3.80197 28.4173 4.15784 28.582 4.59019C28.7467 5.01959 28.829 5.53134 28.829 6.12544V6.61513H23.2748V5.53869H27.2982C27.2953 5.23282 27.2291 4.96076 27.0997 4.72254C26.9703 4.48137 26.7894 4.29166 26.557 4.15343C26.3276 4.0152 26.06 3.94609 25.7541 3.94609C25.4277 3.94609 25.1409 4.02549 24.8938 4.18431C24.6468 4.34019 24.4541 4.54607 24.3159 4.80195C24.1806 5.05488 24.1115 5.33281 24.1086 5.63575V6.57543C24.1086 6.96954 24.1806 7.30776 24.3247 7.59011C24.4689 7.86951 24.6703 8.08421 24.9291 8.23421C25.188 8.38126 25.4909 8.45479 25.8379 8.45479C26.0703 8.45479 26.2806 8.42244 26.4688 8.35774C26.657 8.29009 26.8203 8.19156 26.9585 8.06216C27.0967 7.93275 27.2011 7.77246 27.2717 7.58129L28.7629 7.74893C28.6687 8.14304 28.4893 8.48714 28.2246 8.78125C27.9629 9.07242 27.6276 9.29889 27.2188 9.46065C26.81 9.61947 26.3423 9.69888 25.8159 9.69888ZM31.7771 0.531468V9.56653H30.1801V0.531468H31.7771ZM41.8566 4.58136L40.4008 4.74018C40.3596 4.59313 40.2876 4.4549 40.1846 4.32549C40.0846 4.19608 39.9493 4.09167 39.7788 4.01226C39.6082 3.93285 39.3994 3.89315 39.1523 3.89315C38.82 3.89315 38.5405 3.9652 38.3141 4.10932C38.0906 4.25343 37.9803 4.44019 37.9832 4.6696C37.9803 4.86665 38.0523 5.02694 38.1994 5.15047C38.3494 5.27399 38.5964 5.37546 38.9405 5.45487L40.0964 5.70192C40.7376 5.84015 41.214 6.05927 41.5258 6.35926C41.8405 6.65925 41.9993 7.05189 42.0022 7.53717C41.9993 7.96363 41.8743 8.34009 41.6272 8.66655C41.3831 8.99007 41.0434 9.24301 40.6081 9.42536C40.1729 9.6077 39.6729 9.69888 39.1082 9.69888C38.2788 9.69888 37.6112 9.52535 37.1053 9.1783C36.5994 8.82831 36.298 8.34156 36.2009 7.71805L37.7582 7.56805C37.8288 7.87392 37.9788 8.1048 38.2082 8.26068C38.4376 8.41656 38.7361 8.4945 39.1038 8.4945C39.4832 8.4945 39.7876 8.41656 40.017 8.26068C40.2493 8.1048 40.3655 7.91216 40.3655 7.68275C40.3655 7.48864 40.2905 7.32835 40.1405 7.20188C39.9935 7.07542 39.764 6.97836 39.4523 6.91071L38.2964 6.66807C37.6465 6.53278 37.1656 6.30485 36.8538 5.98427C36.5421 5.66075 36.3877 5.25193 36.3906 4.75783C36.3877 4.34019 36.5009 3.97844 36.7303 3.67256C36.9626 3.36375 37.2847 3.12552 37.6965 2.95788C38.1111 2.78729 38.5891 2.702 39.1302 2.702C39.9243 2.702 40.5493 2.87111 41.0052 3.20934C41.464 3.54757 41.7478 4.00491 41.8566 4.58136ZM43.3191 9.56653V2.79023H44.8455V3.94167H44.9249C45.0661 3.55345 45.2999 3.25051 45.6264 3.03287C45.9529 2.81229 46.3426 2.702 46.7955 2.702C47.2543 2.702 47.641 2.81376 47.9557 3.03729C48.2734 3.25787 48.4969 3.55933 48.6263 3.94167H48.6969C48.8469 3.56521 49.0998 3.26522 49.4557 3.0417C49.8145 2.81523 50.2395 2.702 50.7307 2.702C51.3542 2.702 51.863 2.89905 52.2571 3.29316C52.6512 3.68727 52.8483 4.26225 52.8483 5.01812V9.56653H51.2468V5.26517C51.2468 4.84459 51.1351 4.53725 50.9116 4.34313C50.688 4.14608 50.4145 4.04755 50.091 4.04755C49.7057 4.04755 49.4042 4.16814 49.1866 4.40931C48.9719 4.64754 48.8645 4.95782 48.8645 5.34017V9.56653H47.2984V5.19899C47.2984 4.849 47.1925 4.5696 46.9808 4.36078C46.772 4.15196 46.4984 4.04755 46.1602 4.04755C45.9308 4.04755 45.722 4.10638 45.5338 4.22402C45.3455 4.33872 45.1955 4.50195 45.0838 4.71371C44.972 4.92253 44.9161 5.16664 44.9161 5.44605V9.56653H43.3191Z" fill="#333333"/>
<rect x="0.443686" y="20.6587" width="259.113" height="34.6075" rx="3.1058" fill="white"/>
<path d="M13.7744 37.314L10.951 26.9882H12.2215L14.3794 35.398H14.4803L16.6785 26.9882H18.0903L20.2885 35.398H20.3894L22.5473 26.9882H23.8178L20.9944 37.314H19.7037L17.4247 29.0856H17.3441L15.0651 37.314H13.7744ZM24.7292 37.314V29.5696H25.8787V30.7393H25.9594C26.1006 30.3562 26.356 30.0452 26.7258 29.8066C27.0955 29.5679 27.5123 29.4486 27.9761 29.4486C28.0635 29.4486 28.1728 29.4503 28.3039 29.4537C28.435 29.457 28.5341 29.4621 28.6013 29.4688V30.6788C28.561 30.6688 28.4686 30.6536 28.324 30.6335C28.1829 30.6099 28.0333 30.5982 27.8753 30.5982C27.4988 30.5982 27.1627 30.6772 26.8669 30.8351C26.5745 30.9898 26.3426 31.2049 26.1711 31.4805C26.0031 31.7528 25.9191 32.0637 25.9191 32.4133V37.314H24.7292ZM30.0118 37.314V29.5696H31.2017V37.314H30.0118ZM30.6168 28.2789C30.3849 28.2789 30.1849 28.1999 30.0168 28.0419C29.8521 27.884 29.7698 27.694 29.7698 27.4722C29.7698 27.2504 29.8521 27.0604 30.0168 26.9025C30.1849 26.7445 30.3849 26.6655 30.6168 26.6655C30.8488 26.6655 31.0471 26.7445 31.2118 26.9025C31.3798 27.0604 31.4639 27.2504 31.4639 27.4722C31.4639 27.694 31.3798 27.884 31.2118 28.0419C31.0471 28.1999 30.8488 28.2789 30.6168 28.2789ZM36.749 29.5696V30.578H32.7357V29.5696H36.749ZM33.9054 27.7142H35.0953V35.0955C35.0953 35.4317 35.144 35.6838 35.2415 35.8518C35.3423 36.0165 35.4701 36.1274 35.6247 36.1846C35.7827 36.2384 35.949 36.2653 36.1238 36.2653C36.2549 36.2653 36.3625 36.2585 36.4465 36.2451C36.5305 36.2283 36.5978 36.2148 36.6482 36.2047L36.8902 37.2736C36.8095 37.3039 36.6969 37.3341 36.5524 37.3644C36.4079 37.398 36.2247 37.4148 36.0028 37.4148C35.6667 37.4148 35.3373 37.3425 35.0146 37.198C34.6953 37.0535 34.4298 36.8333 34.218 36.5375C34.0096 36.2417 33.9054 35.8686 33.9054 35.4182V27.7142ZM41.7027 37.4753C40.9565 37.4753 40.3128 37.3106 39.7716 36.9812C39.2338 36.6484 38.8187 36.1846 38.5263 35.5896C38.2372 34.9913 38.0927 34.2956 38.0927 33.5023C38.0927 32.709 38.2372 32.0099 38.5263 31.4049C38.8187 30.7965 39.2254 30.3225 39.7464 29.9831C40.2708 29.6402 40.8825 29.4688 41.5817 29.4688C41.985 29.4688 42.3833 29.536 42.7766 29.6705C43.1699 29.8049 43.5278 30.0234 43.8505 30.3259C44.1732 30.6251 44.4303 31.0217 44.6219 31.5158C44.8135 32.0099 44.9093 32.6183 44.9093 33.341V33.8451H38.9397V32.8166H43.6993C43.6993 32.3796 43.6119 31.9897 43.4371 31.6469C43.2657 31.304 43.0203 31.0335 42.701 30.8351C42.385 30.6368 42.0119 30.5377 41.5817 30.5377C41.1077 30.5377 40.6977 30.6553 40.3515 30.8906C40.0086 31.1225 39.7447 31.425 39.5599 31.7981C39.375 32.1712 39.2826 32.5712 39.2826 32.9981V33.6838C39.2826 34.2687 39.3834 34.7645 39.5851 35.1712C39.7901 35.5745 40.0741 35.8821 40.4372 36.0938C40.8002 36.3022 41.222 36.4064 41.7027 36.4064C42.0153 36.4064 42.2976 36.3627 42.5497 36.2753C42.8052 36.1846 43.0253 36.0501 43.2102 35.872C43.3951 35.6905 43.5379 35.4653 43.6388 35.1964L44.7883 35.5191C44.6673 35.909 44.464 36.2518 44.1782 36.5476C43.8925 36.84 43.5396 37.0686 43.1194 37.2333C42.6993 37.3946 42.227 37.4753 41.7027 37.4753ZM51.9024 32.6553V37.314H50.7125V26.9882H51.9024V30.7797H52.0033C52.1848 30.3797 52.457 30.0621 52.82 29.8268C53.1864 29.5881 53.6738 29.4688 54.2822 29.4688C54.8099 29.4688 55.2721 29.5747 55.6687 29.7864C56.0653 29.9948 56.3729 30.3158 56.5914 30.7494C56.8132 31.1797 56.9241 31.7276 56.9241 32.3931V37.314H55.7342V32.4738C55.7342 31.8586 55.5746 31.383 55.2553 31.0469C54.9393 30.7074 54.5007 30.5377 53.9393 30.5377C53.5494 30.5377 53.1999 30.62 52.8906 30.7847C52.5847 30.9494 52.3427 31.1898 52.1646 31.5057C51.9898 31.8217 51.9024 32.2049 51.9024 32.6553ZM62.3479 37.4753C61.6017 37.4753 60.9581 37.3106 60.4169 36.9812C59.8791 36.6484 59.464 36.1846 59.1716 35.5896C58.8825 34.9913 58.7379 34.2956 58.7379 33.5023C58.7379 32.709 58.8825 32.0099 59.1716 31.4049C59.464 30.7965 59.8707 30.3225 60.3917 29.9831C60.916 29.6402 61.5278 29.4688 62.2269 29.4688C62.6303 29.4688 63.0286 29.536 63.4219 29.6705C63.8151 29.8049 64.1731 30.0234 64.4958 30.3259C64.8185 30.6251 65.0756 31.0217 65.2672 31.5158C65.4588 32.0099 65.5546 32.6183 65.5546 33.341V33.8451H59.585V32.8166H64.3445C64.3445 32.3796 64.2571 31.9897 64.0823 31.6469C63.9109 31.304 63.6656 31.0335 63.3462 30.8351C63.0303 30.6368 62.6572 30.5377 62.2269 30.5377C61.753 30.5377 61.3429 30.6553 60.9967 30.8906C60.6539 31.1225 60.39 31.425 60.2051 31.7981C60.0203 32.1712 59.9278 32.5712 59.9278 32.9981V33.6838C59.9278 34.2687 60.0287 34.7645 60.2303 35.1712C60.4354 35.5745 60.7194 35.8821 61.0824 36.0938C61.4454 36.3022 61.8673 36.4064 62.3479 36.4064C62.6605 36.4064 62.9429 36.3627 63.195 36.2753C63.4504 36.1846 63.6706 36.0501 63.8555 35.872C64.0403 35.6905 64.1832 35.4653 64.284 35.1964L65.4336 35.5191C65.3126 35.909 65.1092 36.2518 64.8235 36.5476C64.5378 36.84 64.1849 37.0686 63.7647 37.2333C63.3446 37.3946 62.8723 37.4753 62.3479 37.4753ZM67.3646 37.314V29.5696H68.5142V30.7393H68.5948C68.736 30.3562 68.9915 30.0452 69.3612 29.8066C69.7309 29.5679 70.1477 29.4486 70.6116 29.4486C70.699 29.4486 70.8082 29.4503 70.9393 29.4537C71.0704 29.457 71.1696 29.4621 71.2368 29.4688V30.6788C71.1965 30.6688 71.104 30.6536 70.9595 30.6335C70.8183 30.6099 70.6687 30.5982 70.5108 30.5982C70.1343 30.5982 69.7982 30.6772 69.5024 30.8351C69.2099 30.9898 68.978 31.2049 68.8066 31.4805C68.6385 31.7528 68.5545 32.0637 68.5545 32.4133V37.314H67.3646ZM75.6585 37.4753C74.9123 37.4753 74.2686 37.3106 73.7275 36.9812C73.1897 36.6484 72.7746 36.1846 72.4821 35.5896C72.1931 34.9913 72.0485 34.2956 72.0485 33.5023C72.0485 32.709 72.1931 32.0099 72.4821 31.4049C72.7746 30.7965 73.1813 30.3225 73.7023 29.9831C74.2266 29.6402 74.8384 29.4688 75.5375 29.4688C75.9409 29.4688 76.3392 29.536 76.7324 29.6705C77.1257 29.8049 77.4837 30.0234 77.8064 30.3259C78.129 30.6251 78.3862 31.0217 78.5778 31.5158C78.7694 32.0099 78.8652 32.6183 78.8652 33.341V33.8451H72.8956V32.8166H77.6551C77.6551 32.3796 77.5677 31.9897 77.3929 31.6469C77.2215 31.304 76.9761 31.0335 76.6568 30.8351C76.3409 30.6368 75.9678 30.5377 75.5375 30.5377C75.0636 30.5377 74.6535 30.6553 74.3073 30.8906C73.9644 31.1225 73.7006 31.425 73.5157 31.7981C73.3308 32.1712 73.2384 32.5712 73.2384 32.9981V33.6838C73.2384 34.2687 73.3393 34.7645 73.5409 35.1712C73.746 35.5745 74.03 35.8821 74.393 36.0938C74.756 36.3022 75.1779 36.4064 75.6585 36.4064C75.9711 36.4064 76.2535 36.3627 76.5056 36.2753C76.761 36.1846 76.9812 36.0501 77.166 35.872C77.3509 35.6905 77.4938 35.4653 77.5946 35.1964L78.7442 35.5191C78.6232 35.909 78.4198 36.2518 78.1341 36.5476C77.8484 36.84 77.4954 37.0686 77.0753 37.2333C76.6551 37.3946 76.1829 37.4753 75.6585 37.4753Z" fill="#757575"/>
<rect x="0.443686" y="20.6587" width="259.113" height="34.6075" rx="3.1058" stroke="#545454" stroke-width="0.887372"/>
</svg>

<svg width="260" height="56" fill="none" xmlns="http://www.w3.org/2000/svg"><path d="M.9 9.57V.53h1.63V8.2H6.5v1.38H.89Zm8.9.13c-.42 0-.8-.07-1.15-.23a1.9 1.9 0 0 1-.81-.68 2 2 0 0 1-.3-1.12c0-.39.07-.7.21-.95.14-.25.34-.45.58-.6.24-.15.52-.27.82-.34.31-.08.63-.14.96-.18l.97-.1c.24-.04.42-.1.54-.16a.4.4 0 0 0 .17-.34v-.03a1 1 0 0 0-.3-.77c-.2-.18-.48-.28-.85-.28-.39 0-.7.09-.93.26-.23.17-.38.37-.46.6l-1.49-.2A2.38 2.38 0 0 1 9.34 2.9a4.23 4.23 0 0 1 2.27-.1c.32.08.62.21.88.39.27.17.49.4.65.7.16.3.24.68.24 1.13v4.54h-1.53v-.93h-.05a1.95 1.95 0 0 1-1.07.92c-.26.1-.57.14-.92.14Zm.42-1.17c.32 0 .6-.06.84-.19.23-.13.41-.3.54-.51.13-.21.2-.44.2-.7v-.8a.75.75 0 0 1-.26.12l-.4.1a12.19 12.19 0 0 1-.81.12 2.4 2.4 0 0 0-.64.16c-.19.07-.34.17-.45.3-.1.14-.16.3-.16.5 0 .3.1.52.32.67.22.15.49.23.82.23Zm4.84 1.04V.53h1.6v3.38h.06c.09-.16.2-.34.35-.52a1.88 1.88 0 0 1 1.59-.69 2.58 2.58 0 0 1 2.42 1.58c.25.52.38 1.15.38 1.9s-.12 1.38-.37 1.9a2.56 2.56 0 0 1-2.43 1.6 1.97 1.97 0 0 1-1.58-.66 3.03 3.03 0 0 1-.36-.52h-.09v1.07h-1.57Zm1.57-3.4c0 .45.06.83.18 1.16.13.33.31.59.55.77.23.18.52.28.86.28.35 0 .65-.1.89-.29.24-.19.41-.45.54-.78.12-.33.18-.7.18-1.13 0-.42-.06-.8-.18-1.12-.12-.33-.3-.58-.54-.77a1.4 1.4 0 0 0-.89-.28c-.34 0-.63.1-.87.27a1.6 1.6 0 0 0-.54.76c-.12.32-.18.7-.18 1.14Zm9.19 3.53a3.5 3.5 0 0 1-1.76-.42c-.5-.29-.87-.7-1.14-1.21a4.05 4.05 0 0 1-.4-1.85c0-.7.14-1.31.4-1.84a3 3 0 0 1 2.81-1.68c.42 0 .81.07 1.18.2.38.14.7.34 1 .62.28.28.5.64.67 1.07.17.43.25.94.25 1.54v.49h-5.56V5.54h4.03c0-.3-.07-.58-.2-.82a1.44 1.44 0 0 0-.54-.57 1.6 1.6 0 0 0-.8-.2c-.33 0-.62.08-.87.23a1.7 1.7 0 0 0-.57.62c-.14.25-.2.53-.21.84v.94c0 .39.07.73.21 1.01.15.28.35.5.6.64.27.15.57.22.92.22.23 0 .44-.03.63-.1a1.23 1.23 0 0 0 .8-.78l1.5.18a2.54 2.54 0 0 1-1.55 1.71c-.41.16-.88.24-1.4.24ZM31.78.53v9.04h-1.6V.53h1.6Zm10.08 4.05-1.46.16a1.17 1.17 0 0 0-.62-.73 1.48 1.48 0 0 0-.63-.12c-.33 0-.6.08-.84.22-.22.14-.33.33-.33.56 0 .2.07.36.22.48s.4.23.74.3l1.16.25c.64.14 1.11.36 1.43.66.31.3.47.7.47 1.18 0 .42-.13.8-.37 1.13a2.4 2.4 0 0 1-1.02.76c-.44.18-.94.27-1.5.27-.83 0-1.5-.17-2-.52a2.1 2.1 0 0 1-.9-1.46l1.55-.15c.07.3.22.53.45.7.23.15.53.22.9.22s.68-.07.9-.23c.24-.16.36-.35.36-.58a.6.6 0 0 0-.23-.48 1.57 1.57 0 0 0-.69-.29l-1.15-.24a2.75 2.75 0 0 1-1.45-.69 1.68 1.68 0 0 1-.46-1.22c0-.42.11-.78.34-1.09.23-.3.55-.54.97-.71.41-.17.89-.26 1.43-.26.8 0 1.42.17 1.88.5.45.35.74.8.85 1.38Zm1.46 4.99V2.79h1.53v1.15h.07c.15-.39.38-.69.7-.9a2 2 0 0 1 1.18-.34c.45 0 .84.11 1.16.34.31.22.54.52.67.9h.07c.15-.37.4-.67.76-.9.35-.22.78-.34 1.27-.34.62 0 1.13.2 1.53.6.4.39.59.96.59 1.72v4.55h-1.6v-4.3c0-.43-.11-.73-.34-.93-.22-.2-.5-.3-.82-.3-.38 0-.69.13-.9.37-.22.24-.33.55-.33.93v4.23H47.3V5.2c0-.35-.1-.63-.32-.84-.2-.2-.48-.31-.82-.31-.23 0-.44.06-.63.17a1.37 1.37 0 0 0-.61 1.23v4.12h-1.6Z" fill="#333"/><rect x=".44" y="20.66" width="259.11" height="34.61" rx="3.11" fill="#fff"/><path d="M13.77 37.31 10.95 27h1.27l2.16 8.4h.1l2.2-8.4h1.41l2.2 8.4h.1l2.16-8.4h1.27l-2.83 10.3H19.7l-2.28-8.22h-.08l-2.27 8.22h-1.3Zm10.96 0v-7.74h1.15v1.17h.08c.14-.38.4-.7.77-.93.37-.24.78-.36 1.25-.36a13.04 13.04 0 0 1 .62.02v1.2a3.55 3.55 0 0 0-.72-.07c-.38 0-.72.08-1.01.24a1.74 1.74 0 0 0-.95 1.58v4.9h-1.2Zm5.28 0v-7.74h1.2v7.74H30Zm.6-9.03a.85.85 0 0 1-.6-.24.76.76 0 0 1-.24-.57c0-.22.08-.41.25-.57a.85.85 0 0 1 .6-.23c.23 0 .43.07.6.23.16.16.24.35.24.57 0 .22-.08.41-.25.57a.83.83 0 0 1-.6.24Zm6.14 1.29v1h-4.01v-1h4Zm-2.84-1.86h1.19v7.39c0 .33.04.58.14.75.1.17.23.28.38.33.16.06.33.09.5.09l.33-.02.2-.05.24 1.07a2.42 2.42 0 0 1-.89.14 2.4 2.4 0 0 1-.99-.21 1.96 1.96 0 0 1-.8-.66 1.9 1.9 0 0 1-.3-1.12v-7.7Zm7.8 9.77a3.32 3.32 0 0 1-3.18-1.89c-.3-.6-.44-1.3-.44-2.09 0-.8.15-1.49.44-2.1a3.28 3.28 0 0 1 3.06-1.94c.4 0 .8.08 1.19.21a2.96 2.96 0 0 1 1.84 1.85c.2.49.29 1.1.29 1.82v.5h-5.97v-1.02h4.76c0-.44-.09-.83-.26-1.17a1.98 1.98 0 0 0-1.86-1.11 2.2 2.2 0 0 0-2.02 1.25c-.19.38-.28.78-.28 1.2v.7c0 .58.1 1.07.3 1.48a2.25 2.25 0 0 0 2.12 1.24c.32 0 .6-.05.85-.13.26-.1.48-.23.66-.4.19-.19.33-.41.43-.68l1.15.32a2.64 2.64 0 0 1-1.67 1.71c-.42.16-.9.25-1.42.25Zm10.2-4.82v4.65h-1.2V27h1.2v3.79h.1c.17-.4.45-.72.81-.95.37-.24.85-.36 1.46-.36.53 0 1 .1 1.39.32.4.2.7.53.92.96.22.43.33.98.33 1.64v4.92h-1.19v-4.84c0-.61-.16-1.09-.47-1.42a1.7 1.7 0 0 0-1.32-.51c-.4 0-.74.08-1.05.24-.3.17-.55.41-.73.73-.17.31-.26.7-.26 1.15Zm10.44 4.82a3.32 3.32 0 0 1-3.18-1.89c-.29-.6-.43-1.3-.43-2.09 0-.8.14-1.49.43-2.1a3.28 3.28 0 0 1 3.06-1.94c.4 0 .8.08 1.2.21a2.96 2.96 0 0 1 1.84 1.85c.19.49.28 1.1.28 1.82v.5H59.6v-1.02h4.75c0-.44-.08-.83-.26-1.17a1.98 1.98 0 0 0-1.85-1.11c-.48 0-.89.12-1.23.35-.35.23-.61.54-.8.9-.18.38-.27.78-.27 1.2v.7c0 .58.1 1.07.3 1.48.2.4.49.71.85.92a2.7 2.7 0 0 0 2.11.19c.26-.1.48-.23.67-.4.18-.19.32-.41.42-.68l1.15.32c-.12.39-.32.73-.6 1.03-.3.29-.65.52-1.07.68-.42.16-.89.25-1.41.25Zm5.01-.17v-7.74h1.15v1.17h.08c.15-.38.4-.7.77-.93.37-.24.79-.36 1.25-.36a13.03 13.03 0 0 1 .63.02v1.2a3.55 3.55 0 0 0-.73-.07c-.38 0-.71.08-1 .24a1.74 1.74 0 0 0-.95 1.58v4.9h-1.2Zm8.3.17a3.32 3.32 0 0 1-3.18-1.89c-.29-.6-.43-1.3-.43-2.09 0-.8.14-1.49.43-2.1a3.28 3.28 0 0 1 3.06-1.94c.4 0 .8.08 1.2.21a2.96 2.96 0 0 1 1.84 1.85c.19.49.29 1.1.29 1.82v.5H72.9v-1.02h4.76c0-.44-.1-.83-.27-1.17a1.98 1.98 0 0 0-1.85-1.11c-.48 0-.89.12-1.23.35-.35.23-.6.54-.8.9-.18.38-.27.78-.27 1.2v.7c0 .58.1 1.07.3 1.48.2.4.49.71.85.92a2.8 2.8 0 0 0 2.12.19c.25-.1.47-.23.66-.4.18-.19.32-.41.42-.68l1.15.32a2.61 2.61 0 0 1-1.66 1.71c-.42.16-.9.25-1.42.25Z" fill="#757575"/><rect x=".44" y="20.66" width="259.11" height="34.61" rx="3.11" stroke="#545454" stroke-width=".89"/></svg>
